X: 3
P: Polska efter Kristian Oskarsson #2
O: F\"ollinge
N: Handwritten MS
M: 3/4
L: 1/8
K: A
A \
|: (3e(fe) (3d(ed) c>e | a(g/f/ e)>(d c)e \
| (3d(Bd) (3c(Ac) B>G |1,3 AA (3c(BA) E2 :|2,4 A2 A4 :|
|: A,>A, (3A,(B,C) (3A,(B,C) | D>D (3D(EF) D(EF) \
| E>E (3E(FG) (3E(FG) |1,3 A>A (3A(cA) E2 :|2,4 A2 A4 :|
